X:6961
T:the Jolly Boaters
O:england
R:Jig
M:6/8
C:Andy Hornby
A:Lancaster
N:June 95
K:G
dc|\
BAG GFG|EGE DGF| EcE DGB|A3- Adc|\
BAG GFG| EGE DGF| EcE DFA| G3- G :|
|: DE|\
FDF ADF|GDG BDG|ABc cBc|A3- ADE|\
FDF ADF|GDG BDG|ABc DFA|G3- G:|
W:Copyright (C) Andy Hornby


